icon/cg/arrow-long-right-c.svg

<svg viewBox="0 0 24 24" fill="none" xmlns="http://www.w3.org/2000/svg" height="1em" width="1em">
  <path fill-rule="evenodd" clip-rule="evenodd" d="M18.73 7.75739L22.9798 11.9929L18.7443 16.2426L17.3277 14.8308L19.142 13.0103L6.85364 13.0525C6.44678 14.219 5.33954 15.0584 4.03368 15.0642C2.37684 15.0717 1.02767 13.7346 1.02023 12.0777C1.01279 10.4209 2.34989 9.07173 4.00673 9.06429C5.31328 9.05842 6.4285 9.88867 6.84531 11.0525L19.1607 11.0103L17.3182 9.17398L18.73 7.75739ZM5.02019 12.0598C5.01771 11.5075 4.56799 11.0618 4.01571 11.0643C3.46343 11.0667 3.01773 11.5165 3.02021 12.0687C3.02269 12.621 3.47242 13.0667 4.02469 13.0642C4.57697 13.0618 5.02267 12.612 5.02019 12.0598Z" fill="currentColor"/>
</svg>

<svg width="24" height="24" fill="none" xmlns="http://www.w3.org/2000/svg"><path fill-rule="evenodd" clip-rule="evenodd" d="m18.73 7.757 4.25 4.236-4.236 4.25-1.416-1.412 1.814-1.82-12.288.042a3.001 3.001 0 1 1-.009-2l12.316-.043-1.843-1.836 1.412-1.417ZM5.02 12.06a1 1 0 1 0-2 .009 1 1 0 0 0 2-.01Z" fill="currentColor"/></svg>
